X: 20018
T: Jimmy Dolan's
R: strathspey
M: 4/4
K: Dmajor
|:(3EFG|A2- A>^G (3ABA A>=G|F>D (3DDD A>D (3DDD|(3AAA A>G (3AAA d>e|1 f>d (3edc d2:|2 f>de>c d>Ad>e||
f>d (3fga g>ee>g|f>de>d c>A A2|f>df>a g2- g>e|f>de>c d2- d>e|
(3fed f>a (3gfe e>g|f>de>d (3cBA A>g|f2 f>a g2 e>g|a>ge<c d2||

